X:25
T:Vals
T:efter Pelle Fors
R:Vals
Z:Björn Ek 2008-12-31
O:Vikbolandet, Östergötland
S:efter Pelle Fors
B:Låtar efter Pelle Fors
M:3/4
L:1/8
K:C
%
G2|:c3B ce|g6   |((3g^fg) ag ec       |cB d3 B|
GA Bc de  |fg a4|(g/2a/2g/2^f/2) g2 Bd|c2 c4 :|
%
|:((5:4g/2a/2g/2^f/2g/2) ag ec|cB d3 B|GA Bc de|fa !trill!g^f g2|
((5:4g/2a/2g/2^f/2g/2) ag ec  |cB d3 B|GA Bc dB|c2 c4          :|
%

